svgs/regular/computer-mouse.svg

<svg xmlns="http://www.w3.org/2000/svg" viewBox="0 0 384 512"><!--! Font Awesome Pro 6.6.0 by @fontawesome - https://fontawesome.com License - https://fontawesome.com/license (Commercial License) Copyright 2024 Fonticons, Inc. --><path d="M192 224L48 224l0 128c0 61.9 50.1 112 112 112l64 0c61.9 0 112-50.1 112-112l0-128-144 0zm192-48l0 24 0 24 0 128c0 88.4-71.6 160-160 160l-64 0C71.6 512 0 440.4 0 352L0 224l0-24 0-24 0-16C0 71.6 71.6 0 160 0l8 0 24 0 24 0 8 0c88.4 0 160 71.6 160 160l0 16zM216 48l0 128 120 0 0-16c0-61.9-50.1-112-112-112l-8 0zm-48 0l-8 0C98.1 48 48 98.1 48 160l0 16 120 0 0-128z"/></svg>

<svg xmlns="http://www.w3.org/2000/svg" viewBox="0 0 384 512"><!--! Font Awesome Pro 6.4.2 by @fontawesome - https://fontawesome.com License - https://fontawesome.com/license (Commercial License) Copyright 2023 Fonticons, Inc. --><path d="M192 224H48V352c0 61.9 50.1 112 112 112h64c61.9 0 112-50.1 112-112V224H192zm192-48v24 24V352c0 88.4-71.6 160-160 160H160C71.6 512 0 440.4 0 352V224 200 176 160C0 71.6 71.6 0 160 0h8 24 24 8c88.4 0 160 71.6 160 160v16zM216 48V176H336V160c0-61.9-50.1-112-112-112h-8zm-48 0h-8C98.1 48 48 98.1 48 160v16H168V48z"/></svg>
